icons/media/tiktok-24.svg

<svg width="24" height="24" viewBox="0 0 24 24" fill="none" xmlns="http://www.w3.org/2000/svg">
<path d="M13.5 2H16.0598V3.24473L16.0603 3.26501C16.061 3.28706 16.0626 3.32511 16.0663 3.37684C16.0736 3.48073 16.0889 3.63717 16.1203 3.82814C16.1842 4.21606 16.3096 4.71388 16.548 5.19635C16.7841 5.67425 17.1178 6.11191 17.5931 6.43256C18.0597 6.74742 18.7368 7 19.75 7H21V9.5H19.75C18.2931 9.5 17.1176 9.12758 16.1948 8.50494C16.1282 8.45999 16.0632 8.41401 16 8.36707V16.25H15.9949C15.8638 19.4478 13.23 22 10 22C6.68629 22 4 19.3137 4 16C4 12.6863 6.68629 10 10 10H11.25V12.5H10C8.067 12.5 6.5 14.067 6.5 16C6.5 17.933 8.067 19.5 10 19.5C11.933 19.5 13.5 17.933 13.5 16V2Z" fill="black"/>
</svg>

<svg xmlns="http://www.w3.org/2000/svg" width="24" height="24"><path d="M13.5 2h2.56v1.265l.006.112c.008.104.023.26.054.451.064.388.19.886.428 1.368.236.478.57.916 1.045 1.237.467.314 1.144.567 2.157.567H21v2.5h-1.25c-1.457 0-2.632-.372-3.555-.995A5.291 5.291 0 0116 8.367v7.883h-.005A6 6 0 1110 10h1.25v2.5H10a3.5 3.5 0 103.5 3.5V2z"/></svg>
